X:1
T:Loyola, 87.87 D
T:Loyola, 87.87 D
T:William James Kirkpatrick, 1888
T:Public Domain Courtesy of the Cyber Hymnal™
C:William James Kirkpatrick, 1888
Z:Public Domain
Z:Courtesy of the Cyber Hymnal™
%%score ( 1 2 ) ( 3 4 )
L:1/8
Q:1/4=95
M:3/4
K:C
V:1 treble 
V:2 treble 
V:3 bass 
V:4 bass 
V:1
 [EG]>[EG] | [Ec]7/2 [EG]/ [CE]>[DF] | [FA]2 [EG]2 [EG]>[EG] | [DG]7/2 [DG]/ [B,D]>[DF] | %4
 [CE]4 [EG]>[EG] | [Ec]7/2 [EG]/ [CE]>[DF] | [FA]2 [EG]2 [Ec]>[Ec] | [DB]7/2 [DA]/ [Dc]>[D^F] | %8
 [DG]4 G>G | [Fd]7/2 [Fd]/ [Fc]>[FB] | [Ec]2 [EG]2 [EG]>[EG] | [Ec]7/2 [Ec]/ [Gc]>[Gd] | %12
 [Ge]4 [^Ge]>[Gd] | [Ec]7/2 [Ec]/ (3(dc)[FA] | [EG]2 [CE]2 [EG]>[Ge] | [Fd]7/2 [Fd]/ [FA]>[FB] | %16
 [Ec]4 |] %17
V:2
 x2 | x6 | x6 | x6 | x6 | x6 | x6 | x6 | x4 G>G | x6 | x6 | x6 | x6 | x4 F2 | x6 | x6 | x4 |] %17
V:3
 [C,C]>[C,C] | [C,G,]7/2 [C,G,]/ [C,G,]>[C,G,] | [C,C]2 [C,C]2 [C,C]>[E,C] | %3
 [G,B,]7/2 [G,B,]/ [G,,G,]>[G,,G,] | [C,G,]4 [C,C]>[C,C] | [C,G,]7/2 [C,G,]/ [C,G,]>[C,G,] | %6
 [C,C]2 [C,C]2 [C,G,]>[C,G,] | [D,G,]7/2 [D,^F,]/ [D,A,]>[D,C] | [G,,G,B,]4 [G,B,]>[G,B,] | %9
 [G,B,]7/2 [G,B,]/ [G,C]>[G,D] | [C,C]2 [C,C]2 [C,C]>[C,C] | [C,G,]7/2 [C,G,]/ [E,C]>[G,B,] | %12
 C4 [E,B,]>[E,B,] | [A,C]7/2 [A,C]/ [F,A,]>[F,A,] | [C,C]2 [C,G,]2 [C,G,]>[C,C] | %15
 [G,B,]7/2 [G,B,]/ [G,D]>[G,D] | [C,C]4 |] %17
V:4
 x2 | x6 | x6 | x6 | x6 | x6 | x6 | x6 | x6 | x6 | x6 | x6 | C4 x2 | x6 | x6 | x6 | x4 |] %17

